images/icon-checkmark-is-done.svg

<?xml version="1.0" encoding="UTF-8" standalone="no"?>
<svg width="24px" height="24px" viewBox="0 0 24 24" version="1.1" xmlns="http://www.w3.org/2000/svg" xmlns:xlink="http://www.w3.org/1999/xlink" xmlns:sketch="http://www.bohemiancoding.com/sketch/ns">
    <!-- Generator: Sketch 3.4 (15575) - http://www.bohemiancoding.com/sketch -->
    <title>icon-checkmark-is-done</title>
    <desc>Created with Sketch.</desc>
    <defs></defs>
    <g id="export" stroke="none" stroke-width="1" fill="none" fill-rule="evenodd" sketch:type="MSPage">
        <g id="icon-checkmark-is-done" sketch:type="MSArtboardGroup" fill="#88C057">
            <path d="M12,2 C6.476807,2 2,6.47763 2,11.99948 C2,17.522369 6.476807,22 12,22 C17.52319,22 22,17.522369 22,11.99948 C22,6.47763 17.52319,2 12,2 L12,2 L12,2 Z M8.294189,12.749817 C7.901917,12.369339 7.901917,11.75163 8.294189,11.37025 C8.700256,10.97635 9.334656,10.97635 9.726929,11.35683 L10.934937,12.532272 L14.2746,9.28525 C14.66589,8.90477 15.30127,8.90477 15.69257,9.28615 C16.09772,9.68094 16.09772,10.29776 15.70636,10.67824 L11.492004,14.775742 C11.184509,15.074753 10.685425,15.074753 10.377869,14.775742 L8.294189,12.749817 L8.294189,12.749817 Z" id="Fill-1-Copy" sketch:type="MSShapeGroup"></path>
        </g>
    </g>
</svg>

<svg width="24" height="24" viewBox="0 0 24 24" xmlns="http://www.w3.org/2000/svg"><title>icon-checkmark-is-done</title><path d="M12 2C6.477 2 2 6.478 2 12s4.477 10 10 10 10-4.478 10-10S17.523 2 12 2zM8.294 12.75c-.392-.38-.392-.998 0-1.38.406-.394 1.04-.394 1.433-.013l1.208 1.175 3.34-3.247c.39-.38 1.026-.38 1.418 0 .405.396.405 1.013.013 1.393l-4.214 4.098c-.307.3-.807.3-1.114 0L8.294 12.75z" fill="#88C057" fill-rule="evenodd"/></svg>
